src/images/svg/planet.svg

<svg width="295" height="295" viewBox="0 0 295 295" fill="none" xmlns="http://www.w3.org/2000/svg">
<path d="M147.5 0C66.036 0 0 66.036 0 147.5C0 228.964 66.036 295 147.5 295C228.964 295 295 228.964 295 147.5C295 66.036 228.964 0 147.5 0ZM196.443 212.685C194.123 214.993 191.691 217.414 189.716 219.394C187.938 221.179 186.683 223.379 186.046 225.764C185.148 229.131 184.423 232.533 183.209 235.798L172.866 263.662C164.683 265.446 156.213 266.452 147.5 266.452V250.167C148.505 242.661 142.956 228.601 134.041 219.686C130.472 216.117 128.468 211.276 128.468 206.226V187.188C128.468 180.265 124.739 173.901 118.678 170.553C110.131 165.824 97.9745 159.217 89.6479 155.024C82.8201 151.586 76.5037 147.209 70.8238 142.088L70.348 141.659C66.2862 137.993 62.6798 133.852 59.6067 129.324C54.0278 121.134 44.9399 107.663 39.034 98.9083C51.2087 71.8468 73.1493 50.1143 100.413 38.3084L114.693 45.4514C121.021 48.6155 128.468 44.018 128.468 36.9404V30.2197C133.22 29.4524 138.055 28.9647 142.974 28.7803L159.806 45.612C163.523 49.3292 163.523 55.3541 159.806 59.0714L157.016 61.8548L150.866 68.0046C149.011 69.8603 149.011 72.8757 150.866 74.7313L153.656 77.5208C155.511 79.3764 155.511 82.3918 153.656 84.2475L148.898 89.0055C148.004 89.8972 146.794 90.3977 145.531 90.3973H140.184C138.947 90.3973 137.758 90.879 136.866 91.7474L130.966 97.4868C130.242 98.1911 129.762 99.1069 129.593 100.102C129.424 101.097 129.576 102.121 130.026 103.024L139.298 121.574C140.88 124.739 138.579 128.462 135.046 128.462H131.691C130.543 128.462 129.437 128.045 128.575 127.296L123.055 122.502C121.806 121.419 120.297 120.679 118.675 120.356C117.054 120.032 115.376 120.137 113.807 120.659L95.2683 126.838C93.853 127.31 92.622 128.215 91.7499 129.426C90.8778 130.636 90.4087 132.091 90.4092 133.583C90.4092 136.277 91.9317 138.733 94.3405 139.941L100.93 143.236C106.527 146.037 112.701 147.494 118.958 147.494C125.214 147.494 132.393 163.725 137.99 166.526H177.69C182.739 166.526 187.575 168.531 191.149 172.099L199.292 180.241C202.693 183.644 204.604 188.259 204.603 193.07C204.602 196.716 203.88 200.326 202.48 203.692C201.079 207.058 199.028 210.115 196.443 212.685ZM248.014 158.354C244.57 157.492 241.567 155.381 239.598 152.425L228.905 136.384C227.34 134.04 226.505 131.286 226.505 128.468C226.505 125.65 227.34 122.895 228.905 120.552L240.556 103.078C241.936 101.014 243.827 99.3365 246.051 98.2302L253.771 94.3703C261.812 110.381 266.452 128.39 266.452 147.5C266.452 152.657 266.011 157.706 265.369 162.69L248.014 158.354Z" fill="url(#paint0_linear)"/>
<defs>
<linearGradient id="paint0_linear" x1="11.1555" y1="148.739" x2="295" y2="148.739" gradientUnits="userSpaceOnUse">
<stop offset="0.09375" stop-color="white"/>
<stop offset="0.635417" stop-color="white" stop-opacity="0.745283"/>
<stop offset="1" stop-color="white" stop-opacity="0"/>
</linearGradient>
</defs>
</svg>

<svg width="295" height="295" fill="none" xmlns="http://www.w3.org/2000/svg"><path d="M147.5 0C66.036 0 0 66.036 0 147.5S66.036 295 147.5 295 295 228.964 295 147.5 228.964 0 147.5 0zm48.943 212.685c-2.32 2.308-4.752 4.729-6.727 6.709a14.226 14.226 0 00-3.67 6.37c-.898 3.367-1.623 6.769-2.837 10.034l-10.343 27.864c-8.183 1.784-16.653 2.79-25.366 2.79v-16.285c1.005-7.506-4.544-21.566-13.459-30.481a19.032 19.032 0 01-5.573-13.46v-19.038c0-6.923-3.729-13.287-9.79-16.635-8.547-4.729-20.703-11.336-29.03-15.529-6.828-3.438-13.144-7.815-18.824-12.936l-.476-.429a68.23 68.23 0 01-10.741-12.335c-5.58-8.19-14.667-21.661-20.573-30.416 12.175-27.061 34.115-48.794 61.379-60.6l14.28 7.143c6.328 3.164 13.775-1.433 13.775-8.51V30.22a118.846 118.846 0 0114.506-1.44l16.832 16.832a9.517 9.517 0 010 13.46l-2.79 2.783-6.15 6.15a4.761 4.761 0 000 6.726l2.79 2.79a4.761 4.761 0 010 6.727l-4.758 4.757a4.764 4.764 0 01-3.367 1.392h-5.347a4.753 4.753 0 00-3.318 1.35l-5.9 5.74a4.759 4.759 0 00-.94 5.537l9.272 18.55c1.582 3.165-.719 6.888-4.252 6.888h-3.355a4.752 4.752 0 01-3.116-1.166l-5.52-4.794a9.526 9.526 0 00-9.248-1.843l-18.539 6.179a7.105 7.105 0 00-4.859 6.745 7.112 7.112 0 003.931 6.358l6.59 3.295a40.286 40.286 0 0018.028 4.258c6.256 0 13.435 16.231 19.032 19.032h39.7c5.049 0 9.885 2.005 13.459 5.573l8.143 8.142a18.144 18.144 0 015.311 12.829 27.68 27.68 0 01-8.16 19.615zm51.571-54.331a14.273 14.273 0 01-8.416-5.929l-10.693-16.041a14.254 14.254 0 010-15.832l11.651-17.474a14.26 14.26 0 015.495-4.848l7.72-3.86c8.041 16.011 12.681 34.02 12.681 53.13 0 5.157-.441 10.206-1.083 15.19l-17.355-4.336z" fill="url(#paint0_linear)"/><defs><linearGradient id="paint0_linear" x1="11.155" y1="148.739" x2="295" y2="148.739" gradientUnits="userSpaceOnUse"><stop offset=".094" stop-color="#fff"/><stop offset=".635" stop-color="#fff" stop-opacity=".745"/><stop offset="1" stop-color="#fff" stop-opacity="0"/></linearGradient></defs></svg>
